X: 251
T: The angry peeler
C: anon.
O: Ireland
B: Francis O'Neill: "The Dance Music of Ireland" (1907) no. 251
R: Double jig
Z: Transcribed by Frank Nordberg - http://www.musicaviva.com
F: http://www.musicaviva.com/abc/tunes/ireland/oneill-1001/oneill-1001-025
1.abc
M: 6/8
L: 1/8
K: G
(B/c/B)A GED|DED GED|BAB dBG|ABA A3|(B/c/d)A GED|DED GED|BAB dBG|DEG G3:|


